X:3
T:Lichtmann 3
C:F. Mendelssohn
M:3/4
L:1/8
Q:"Andante tranquillo" 1/4=58
K:C
"_mp dolce"G>G|c3 (Gcd)|(d2e2) g2|f2 e2 d2|g4 e2|(c2B2)c2|(c2d3)e|f3 (edc)|(c2B2)G>G||
c3 (Gcd)|(d2e2) g2|f2e2d2|g4e2|(c2B2) c2|(c2d3) e|f3 (dcB)|c4 G>G||
g3 (ede)|f3 (edc)|(B2c2) A2|(A2G2)G>G|g3 (ede)|(gf2) (edc)|"_rit."c>B (B2c2)|
!breath!Hd4"_a tempo"G>G||c3 (Gcd)|(d2e2)g2|f2e2d2|g4e2|(c2B2)c2|(c2d3) e|f3 (dcB)|c4|]

